webroot/assets/modal/modal-responsive-desktop-video.svg

<svg xmlns="http://www.w3.org/2000/svg" width="1000" height="499"><defs><style>.d{fill:#fff}</style></defs><path d="M0 0h1000v499H0z" opacity=".5" fill="#151515"/><path d="M170 64h660v371H170z" fill="#151515"/><g transform="translate(468 218)"><circle cx="32" cy="32" r="32" opacity=".25" fill="#fff"/><path class="d" d="M44 32L24 42V22z"/></g><path d="M838 42h14v14h-14z" fill="none"/><path class="d" d="M846.9 49l2.84-2.84a.9.9 0 000-1.27l-.63-.64a.9.9 0 00-1.25 0L845 47.1l-2.84-2.84a.9.9 0 00-1.27 0l-.64.63a.9.9 0 000 1.26L843.1 49l-2.84 2.84a.9.9 0 000 1.27l.63.64a.9.9 0 001.26 0L845 50.9l2.84 2.84a.9.9 0 001.27 0l.64-.63a.9.9 0 000-1.25z"/><g opacity=".04"><path d="M935 0h65v499h-65zm-85 0h65v499h-65zm-85 0h65v499h-65zm-85 0h65v499h-65zm-85 0h65v499h-65zm-85 0h65v499h-65zm-85 0h65v499h-65zm-85 0h65v499h-65zm-85 0h65v499h-65zm-85 0h65v499h-65zM85 0h65v499H85zM0 0h65v499H0z" fill="red" opacity=".75"/></g></svg>

<svg xmlns="http://www.w3.org/2000/svg" width="1000" height="499" viewBox="0 0 1000 499"><defs><style>.a,.b{fill:#151515;}.a{opacity:0.5;}.c,.d{fill:#fff;}.c{opacity:0.25;}.e{fill:none;}.f{opacity:0.04;}.g{fill:red;opacity:0.75;}</style></defs><path class="a" d="M0,0H1000V499H0Z"/><path class="b" d="M170,64H830V435H170Z"/><g transform="translate(468 218)"><circle class="c" cx="32" cy="32" r="32"/><path class="d" d="M44,32,24,42V22Z"/></g><path class="e" d="M838,42h14V56H838Z"/><path class="d" d="M846.9,49l2.84-2.84a.9.9,0,0,0,0-1.27l-.63-.64a.9.9,0,0,0-1.25,0L845,47.1l-2.84-2.84a.9.9,0,0,0-1.27,0l-.64.63a.9.9,0,0,0,0,1.26L843.1,49l-2.84,2.84a.9.9,0,0,0,0,1.27l.63.64a.9.9,0,0,0,1.26,0L845,50.9l2.84,2.84a.9.9,0,0,0,1.27,0l.64-.63a.9.9,0,0,0,0-1.25Z"/><g class="f"><path class="g" d="M935,0h65V499H935ZM850,0h65V499H850ZM765,0h65V499H765ZM680,0h65V499H680ZM595,0h65V499H595ZM510,0h65V499H510ZM425,0h65V499H425ZM340,0h65V499H340ZM255,0h65V499H255ZM170,0h65V499H170ZM85,0h65V499H85ZM0,0H65V499H0Z"/></g></svg>
